packages/ffe-icons/icons/open/300/lg/sports_baseball.svg

<svg xmlns="http://www.w3.org/2000/svg" height="40" viewBox="0 -960 960 960" width="40"><path d="M225.693-267.897q50.282-36.59 77.833-93.205Q331.078-417.718 331.078-480t-27.552-119.103q-27.551-56.821-77.833-93.667-37.462 45.051-56.449 99.475Q150.256-538.872 150.256-480t18.988 113.09q18.987 54.218 56.449 99.013ZM480-150.256q60.693 0 116.488-20.308t101.666-60.718q-56.538-46.052-87.679-111.244Q579.334-407.718 579.334-480t31.141-137.679q31.141-65.398 87.679-111.449-45.871-40-101.666-60.308Q540.693-809.744 480-809.744q-60.692 0-116.487 20.308-55.796 20.308-101.667 60.308 56.538 46.051 88.012 111.449Q381.333-552.282 381.333-480t-31.475 137.474q-31.474 65.192-88.012 111.244 45.871 40.41 101.667 60.718Q419.308-150.256 480-150.256Zm254.718-117.641q37.718-44.795 56.372-99.013 18.654-54.218 18.654-113.09T791.09-593.295q-18.654-54.424-56.372-99.475-50.283 36.846-77.706 93.667Q629.589-542.282 629.589-480t27.423 118.898q27.423 56.615 77.706 93.205ZM480-480Zm.067 379.999q-78.426 0-147.794-29.92-69.368-29.92-120.887-81.416-51.519-51.495-81.452-120.833t-29.933-147.763q0-78.836 29.92-147.999t81.416-120.682q51.495-51.519 120.833-81.452t147.763-29.933q78.836 0 147.999 29.92t120.682 81.416q51.519 51.496 81.452 120.628t29.933 147.968q0 78.426-29.92 147.794-29.92 69.368-81.416 120.887-51.496 51.519-120.628 81.452t-147.968 29.933Z"/></svg>

<svg xmlns="http://www.w3.org/2000/svg" viewBox="0 -960 960 960" width="32" height="32"><path d="M225.69-267.9q50.28-36.59 77.84-93.2 27.55-56.62 27.55-118.9 0-62.28-27.55-119.1-27.56-56.82-77.84-93.67-37.46 45.05-56.45 99.47-18.98 54.43-18.98 113.3t18.98 113.09q18.99 54.22 56.45 99.01ZM480-150.26q60.69 0 116.49-20.3 55.79-20.31 101.66-60.72-56.53-46.05-87.67-111.25-31.15-65.19-31.15-137.47t31.15-137.68q31.14-65.4 87.67-111.45-45.87-40-101.66-60.31-55.8-20.3-116.49-20.3t-116.49 20.3q-55.79 20.31-101.66 60.31 56.53 46.05 88.01 111.45 31.47 65.4 31.47 137.68t-31.47 137.47q-31.48 65.2-88.01 111.25 45.87 40.41 101.66 60.72 55.8 20.3 116.49 20.3ZM734.72-267.9q37.72-44.79 56.37-99.01 18.65-54.22 18.65-113.09 0-58.87-18.65-113.3-18.65-54.42-56.37-99.47-50.28 36.85-77.71 93.67-27.42 56.82-27.42 119.1 0 62.28 27.42 118.9 27.43 56.61 77.71 93.2ZM480-480Zm.07 380q-78.43 0-147.8-29.92t-120.88-81.42q-51.52-51.49-81.46-120.83Q100-401.51 100-479.93q0-78.84 29.92-148 29.92-69.17 81.42-120.68 51.49-51.52 120.83-81.46Q401.51-860 479.93-860q78.84 0 148 29.92 69.17 29.92 120.68 81.42 51.52 51.49 81.46 120.62Q860-558.9 860-480.07q0 78.43-29.92 147.8t-81.42 120.88q-51.49 51.52-120.62 81.46Q558.9-100 480.07-100Z"/></svg>
